X: 12674
T: Fasten Your Seatbelts
R: slip jig
M: 9/8
K: Dmixolydian
|:d2A def d2c|Add ded DEF|
G2G GBc BAB|c2B G2G GAB|
[M:6/8] A2A dDG|F2D DED:|
[M:6/8] ADD GDD|FGF FGA|B3 cdB|G2B c2B|
|:ADD GDD|FGF FED|CEG cEC|B,Dc BAG|
ADD GDD|FGF FGA|B3 cdB|G2B c2B|
Ad^c def|Acc cdc|B2B BAG|BcB B2G:|

